X:7
T:Sicilian Dance,The. RHu.007
S:R.Hughes MS,1823,Whitchurch,Shrops.
A:Whitchurch, Shropshire
Z:Neil Brookes 2006
M:6/8
L:1/8
Q:3/8=120
R:Jig
K:G
G>AG B>AG|d2d d2c|Bdg d2c|B2A G2D|!
G>AG B>AG|d2d d2g|f>gf ed^c|d3 d2z||!
a2d c’2b|agf gfg|a2d c’2b|agf gfg|!
ec’c’ dbb|caa g2B|cBA d2F|G3 G2z||!
B3B>cB|G2G GBd|d3c>dc|B2BB2g|!
g2ff2e|e2dd2c|B>cd dcB|B3A2z||!
“^d cr in MS”g2 a ed^c|d>ed d3|c’3caf|g>ag g3|!
ec’c’ dbb|caa g2B|cBA d2F|G3 G2|]

